64x64/apps/accessories-notes.svg

<svg xmlns="http://www.w3.org/2000/svg" width="64" height="64" version="1"><path style="opacity:.2" d="M8 5S4 5 4 9v48c0 4 4 4 4 4h32l20-20V9c0-4-4-4-4-4z"/><path style="fill:#fecd38" d="M8 4S4 4 4 8v48c0 4 4 4 4 4h32l20-20V8c0-4-4-4-4-4z"/><path style="fill:#ffe69b" d="M60 40H43c-1.656 0-3 1.344-3 3v17z"/><path style="opacity:.2;fill:#f4f4f7" d="M43 40c-1.656 0-3 1.344-3 3v1c0-1.656 1.344-3 3-3h16l1-1zM8 4S4 4 4 8v1c0-4 4-4 4-4h48s4 0 4 4V8c0-4-4-4-4-4H8z"/><rect style="opacity:.1" width="44" height="5" x="10" y="20" rx="2.5" ry="2.5"/><rect style="fill:#4f4f4f" width="44" height="5" x="10" y="19" rx="2.5" ry="2.5"/><rect style="opacity:.1" width="30" height="5" x="10" y="31" rx="2.5" ry="2.5"/><rect style="fill:#4f4f4f" width="30" height="5" x="10" y="30" rx="2.5" ry="2.5"/><rect style="opacity:.1" width="19" height="5" x="10" y="42" rx="2.5" ry="2.5"/><rect style="fill:#4f4f4f" width="19" height="5" x="10" y="41" rx="2.5" ry="2.5"/></svg>

<svg xmlns="http://www.w3.org/2000/svg" width="64" height="64" version="1">
 <path style="opacity:0.2" d="M 8,5 C 8,5 4,5 4,9 V 57 C 4,61 8,61 8,61 H 40 L 60,41 V 9 C 60,5 56,5 56,5 Z"/>
 <path style="fill:#fecd38" d="M 8,4 C 8,4 4,4 4,8 V 56 C 4,60 8,60 8,60 H 40 L 60,40 V 8 C 60,4 56,4 56,4 Z"/>
 <path style="fill:#ffe69b" d="M 60,40 H 43 C 41.344,40 40,41.344 40,43 V 60 Z"/>
 <path style="opacity:0.2;fill:#f4f4f7" d="M 43,40 C 41.344,40 40,41.344 40,43 V 44 C 40,42.344 41.344,41 43,41 H 59 L 60,40 Z"/>
 <path style="opacity:0.2;fill:#f4f4f7" d="M 8 4 C 8 4 4 4 4 8 L 4 9 C 4 5 8 5 8 5 L 56 5 C 56 5 60 5 60 9 L 60 8 C 60 4 56 4 56 4 L 8 4 z"/>
 <rect style="opacity:0.1" width="44" height="5" x="10" y="20" rx="2.5" ry="2.5"/>
 <rect style="fill:#4f4f4f" width="44" height="5" x="10" y="19" rx="2.5" ry="2.5"/>
 <rect style="opacity:0.1" width="30" height="5" x="10" y="31" rx="2.5" ry="2.5"/>
 <rect style="fill:#4f4f4f" width="30" height="5" x="10" y="30" rx="2.5" ry="2.5"/>
 <rect style="opacity:0.1" width="19" height="5" x="10" y="42" rx="2.5" ry="2.5"/>
 <rect style="fill:#4f4f4f" width="19" height="5" x="10" y="41" rx="2.5" ry="2.5"/>
</svg>
